X: 17
T:Gallant Hussar, Bledington
M:6/8
L:1/8
A:Bledington
P:A(AB)2(AC)2
K:G
P:A
|:D|G2B ABc|dBe c2A|GAB cBd|1G3 F2:|2G3 G2||
P:B
|:B/c/|dBd g2g|ecA c2B|ABc dBA| G3 F2D|
G2B ABc|dBe c2A|GAB cBd| G3 G2:|
P:C
|:z|\
M:3/8
L:1/8
B2c|\
M:6/8
d2c B2d|g3  g3 |e2c A2B|\
M:3/8
L:1/8
c2c|\
M:6/8
ABc dBA| G3 F2D|
G2B ABc|dBe c2A|GAB cBd| G3 G2:|

